assets/1. P-Z/Speaker low volume/Color/Speaker.Low.Volume-color.svg

<svg width="100%" height="100%" viewBox="0 0 32 32" fill="none" xmlns="http://www.w3.org/2000/svg">
<circle cx="22.6562" cy="15.9888" r="3.21875" fill="url(#paint0_radial_18_17802)"/>
<circle cx="22.6562" cy="15.9888" r="3.21875" fill="url(#paint1_radial_18_17802)"/>
<circle cx="22.6562" cy="15.9888" r="3.21875" fill="url(#paint2_radial_18_17802)"/>
<path d="M6.125 10.6435C6.125 9.7598 6.84134 9.04346 7.725 9.04346H12.0625V22.9341H7.725C6.84134 22.9341 6.125 22.2177 6.125 21.3341V10.6435Z" fill="url(#paint3_linear_18_17802)"/>
<path d="M6.125 10.6435C6.125 9.7598 6.84134 9.04346 7.725 9.04346H12.0625V22.9341H7.725C6.84134 22.9341 6.125 22.2177 6.125 21.3341V10.6435Z" fill="url(#paint4_linear_18_17802)"/>
<path d="M6.125 10.6435C6.125 9.7598 6.84134 9.04346 7.725 9.04346H12.0625V22.9341H7.725C6.84134 22.9341 6.125 22.2177 6.125 21.3341V10.6435Z" fill="url(#paint5_linear_18_17802)"/>
<path d="M6.125 10.6435C6.125 9.7598 6.84134 9.04346 7.725 9.04346H12.0625V22.9341H7.725C6.84134 22.9341 6.125 22.2177 6.125 21.3341V10.6435Z" fill="url(#paint6_linear_18_17802)"/>
<path d="M6.125 10.6435C6.125 9.7598 6.84134 9.04346 7.725 9.04346H12.0625V22.9341H7.725C6.84134 22.9341 6.125 22.2177 6.125 21.3341V10.6435Z" fill="url(#paint7_linear_18_17802)"/>
<path d="M22.9219 6.86486C22.9219 5.24461 21.1977 4.2066 19.7658 4.96478L12.0625 9.04365V22.9343L19.7615 27.033C21.1936 27.7954 22.9219 26.7576 22.9219 25.1352V6.86486Z" fill="url(#paint8_linear_18_17802)"/>
<path d="M22.9219 6.86486C22.9219 5.24461 21.1977 4.2066 19.7658 4.96478L12.0625 9.04365V22.9343L19.7615 27.033C21.1936 27.7954 22.9219 26.7576 22.9219 25.1352V6.86486Z" fill="url(#paint9_linear_18_17802)"/>
<path d="M22.9219 6.86486C22.9219 5.24461 21.1977 4.2066 19.7658 4.96478L12.0625 9.04365V22.9343L19.7615 27.033C21.1936 27.7954 22.9219 26.7576 22.9219 25.1352V6.86486Z" fill="url(#paint10_radial_18_17802)"/>
<path d="M22.9219 6.86486C22.9219 5.24461 21.1977 4.2066 19.7658 4.96478L12.0625 9.04365V22.9343L19.7615 27.033C21.1936 27.7954 22.9219 26.7576 22.9219 25.1352V6.86486Z" fill="url(#paint11_linear_18_17802)"/>
<path d="M22.9219 6.86486C22.9219 5.24461 21.1977 4.2066 19.7658 4.96478L12.0625 9.04365V22.9343L19.7615 27.033C21.1936 27.7954 22.9219 26.7576 22.9219 25.1352V6.86486Z" fill="url(#paint12_linear_18_17802)"/>
<path d="M22.9219 6.86486C22.9219 5.24461 21.1977 4.2066 19.7658 4.96478L12.0625 9.04365V22.9343L19.7615 27.033C21.1936 27.7954 22.9219 26.7576 22.9219 25.1352V6.86486Z" fill="url(#paint13_radial_18_17802)"/>
<defs>
<radialGradient id="paint0_radial_18_17802" cx="0" cy="0" r="1" gradientUnits="userSpaceOnUse" gradientTransform="translate(24.9425 13.8818) rotate(113.233) scale(5.79574)">
<stop offset="0.0970969" stop-color="#E1E0E4"/>
<stop offset="1" stop-color="#CECAD6"/>
</radialGradient>
<radialGradient id="paint1_radial_18_17802" cx="0" cy="0" r="1" gradientUnits="userSpaceOnUse" gradientTransform="translate(24.8123 14.9233) rotate(145.706) scale(1.89104)">
<stop stop-color="#F4F6FE"/>
<stop offset="1" stop-color="#F4F6FE" stop-opacity="0"/>
</radialGradient>
<radialGradient id="paint2_radial_18_17802" cx="0" cy="0" r="1" gradientUnits="userSpaceOnUse" gradientTransform="translate(22.9285 15.2318) rotate(93.9172) scale(3.98501 4.05745)">
<stop offset="0.594478" stop-color="#D1CCD9" stop-opacity="0"/>
<stop offset="1" stop-color="#B9B6BF"/>
</radialGradient>
<linearGradient id="paint3_linear_18_17802" x1="13.125" y1="11.2466" x2="9.09375" y2="20.7466" gradientUnits="userSpaceOnUse">
<stop offset="0.213026" stop-color="#D2CED6"/>
<stop offset="1" stop-color="#DDD5E6"/>
</linearGradient>
<linearGradient id="paint4_linear_18_17802" x1="9.09375" y1="9.04346" x2="9.09375" y2="14.1115" gradientUnits="userSpaceOnUse">
<stop stop-color="#C5C4C5"/>
<stop offset="1" stop-color="#C5C4C5" stop-opacity="0"/>
</linearGradient>
<linearGradient id="paint5_linear_18_17802" x1="10.375" y1="23.3091" x2="10.375" y2="19.3091" gradientUnits="userSpaceOnUse">
<stop stop-color="#B6B0BD"/>
<stop offset="1" stop-color="#D8D0E1" stop-opacity="0"/>
</linearGradient>
<linearGradient id="paint6_linear_18_17802" x1="6.125" y1="18.2466" x2="8.6875" y2="18.2466" gradientUnits="userSpaceOnUse">
<stop offset="0.0243902" stop-color="#A5A5A5"/>
<stop offset="1" stop-color="#C3BECB" stop-opacity="0"/>
</linearGradient>
<linearGradient id="paint7_linear_18_17802" x1="12.6458" y1="20.7355" x2="11.6774" y2="20.7355" gradientUnits="userSpaceOnUse">
<stop offset="0.266667" stop-color="#CCC5D4"/>
<stop offset="1" stop-color="#CCC5D4" stop-opacity="0"/>
</linearGradient>
<linearGradient id="paint8_linear_18_17802" x1="23.5" y1="7.74676" x2="15" y2="24.0593" gradientUnits="userSpaceOnUse">
<stop stop-color="#BFBAC4"/>
<stop offset="1" stop-color="#CAC2D3"/>
</linearGradient>
<linearGradient id="paint9_linear_18_17802" x1="10.9083" y1="18.565" x2="15.0917" y2="18.565" gradientUnits="userSpaceOnUse">
<stop stop-color="#C4BECC"/>
<stop offset="1" stop-color="#C4BECC" stop-opacity="0"/>
</linearGradient>
<radialGradient id="paint10_radial_18_17802" cx="0" cy="0" r="1" gradientUnits="userSpaceOnUse" gradientTransform="translate(15.1563 6.96551) rotate(59.0362) scale(5.10208 17.8709)">
<stop offset="0.114889" stop-color="#ABABAC"/>
<stop offset="1" stop-color="#C2BDC7" stop-opacity="0"/>
</radialGradient>
<linearGradient id="paint11_linear_18_17802" x1="16.0938" y1="25.4655" x2="17.7813" y2="22.278" gradientUnits="userSpaceOnUse">
<stop stop-color="#B3AFB8"/>
<stop offset="1" stop-color="#CAC2D3" stop-opacity="0"/>
</linearGradient>
<linearGradient id="paint12_linear_18_17802" x1="24.1179" y1="21.6934" x2="20.733" y2="21.6934" gradientUnits="userSpaceOnUse">
<stop stop-color="#E6E7EF"/>
<stop offset="1" stop-color="#D2CBDA" stop-opacity="0"/>
</linearGradient>
<radialGradient id="paint13_radial_18_17802" cx="0" cy="0" r="1" gradientUnits="userSpaceOnUse" gradientTransform="translate(22.0625 11.653) rotate(90) scale(16.0625 2.22649)">
<stop stop-color="#F8F6FB"/>
<stop offset="1" stop-color="#E7E6EE" stop-opacity="0"/>
</radialGradient>
</defs>
</svg>

<svg width="100%" height="100%" viewBox="0 0 32 32" xmlns="http://www.w3.org/2000/svg"><circle cx="22.656" cy="15.989" r="3.219" fill="url(#a)"/><circle cx="22.656" cy="15.989" r="3.219" fill="url(#b)"/><circle cx="22.656" cy="15.989" r="3.219" fill="url(#c)"/><path fill="url(#d)" d="M6.125 10.644a1.6 1.6 0 0 1 1.6-1.6h4.338v13.89H7.725a1.6 1.6 0 0 1-1.6-1.6z"/><path fill="url(#e)" d="M6.125 10.644a1.6 1.6 0 0 1 1.6-1.6h4.338v13.89H7.725a1.6 1.6 0 0 1-1.6-1.6z"/><path fill="url(#f)" d="M6.125 10.644a1.6 1.6 0 0 1 1.6-1.6h4.338v13.89H7.725a1.6 1.6 0 0 1-1.6-1.6z"/><path fill="url(#g)" d="M6.125 10.644a1.6 1.6 0 0 1 1.6-1.6h4.338v13.89H7.725a1.6 1.6 0 0 1-1.6-1.6z"/><path fill="url(#h)" d="M6.125 10.644a1.6 1.6 0 0 1 1.6-1.6h4.338v13.89H7.725a1.6 1.6 0 0 1-1.6-1.6z"/><path fill="url(#i)" d="M22.922 6.865c0-1.62-1.724-2.658-3.156-1.9l-7.703 4.079v13.89l7.699 4.099c1.432.762 3.16-.275 3.16-1.898z"/><path fill="url(#j)" d="M22.922 6.865c0-1.62-1.724-2.658-3.156-1.9l-7.703 4.079v13.89l7.699 4.099c1.432.762 3.16-.275 3.16-1.898z"/><path fill="url(#k)" d="M22.922 6.865c0-1.62-1.724-2.658-3.156-1.9l-7.703 4.079v13.89l7.699 4.099c1.432.762 3.16-.275 3.16-1.898z"/><path fill="url(#l)" d="M22.922 6.865c0-1.62-1.724-2.658-3.156-1.9l-7.703 4.079v13.89l7.699 4.099c1.432.762 3.16-.275 3.16-1.898z"/><path fill="url(#m)" d="M22.922 6.865c0-1.62-1.724-2.658-3.156-1.9l-7.703 4.079v13.89l7.699 4.099c1.432.762 3.16-.275 3.16-1.898z"/><path fill="url(#n)" d="M22.922 6.865c0-1.62-1.724-2.658-3.156-1.9l-7.703 4.079v13.89l7.699 4.099c1.432.762 3.16-.275 3.16-1.898z"/><defs><linearGradient id="d" x1="13.125" x2="9.094" y1="11.247" y2="20.747" gradientUnits="userSpaceOnUse"><stop offset=".213" stop-color="#D2CED6"/><stop offset="1" stop-color="#DDD5E6"/></linearGradient><linearGradient id="e" x1="9.094" x2="9.094" y1="9.043" y2="14.111" gradientUnits="userSpaceOnUse"><stop stop-color="#C5C4C5"/><stop offset="1" stop-color="#C5C4C5" stop-opacity="0"/></linearGradient><linearGradient id="f" x1="10.375" x2="10.375" y1="23.309" y2="19.309" gradientUnits="userSpaceOnUse"><stop stop-color="#B6B0BD"/><stop offset="1" stop-color="#D8D0E1" stop-opacity="0"/></linearGradient><linearGradient id="g" x1="6.125" x2="8.688" y1="18.247" y2="18.247" gradientUnits="userSpaceOnUse"><stop offset=".024" stop-color="#A5A5A5"/><stop offset="1" stop-color="#C3BECB" stop-opacity="0"/></linearGradient><linearGradient id="h" x1="12.646" x2="11.677" y1="20.735" y2="20.735" gradientUnits="userSpaceOnUse"><stop offset=".267" stop-color="#CCC5D4"/><stop offset="1" stop-color="#CCC5D4" stop-opacity="0"/></linearGradient><linearGradient id="i" x1="23.5" x2="15" y1="7.747" y2="24.059" gradientUnits="userSpaceOnUse"><stop stop-color="#BFBAC4"/><stop offset="1" stop-color="#CAC2D3"/></linearGradient><linearGradient id="j" x1="10.908" x2="15.092" y1="18.565" y2="18.565" gradientUnits="userSpaceOnUse"><stop stop-color="#C4BECC"/><stop offset="1" stop-color="#C4BECC" stop-opacity="0"/></linearGradient><linearGradient id="l" x1="16.094" x2="17.781" y1="25.465" y2="22.278" gradientUnits="userSpaceOnUse"><stop stop-color="#B3AFB8"/><stop offset="1" stop-color="#CAC2D3" stop-opacity="0"/></linearGradient><linearGradient id="m" x1="24.118" x2="20.733" y1="21.693" y2="21.693" gradientUnits="userSpaceOnUse"><stop stop-color="#E6E7EF"/><stop offset="1" stop-color="#D2CBDA" stop-opacity="0"/></linearGradient><radialGradient id="a" cx="0" cy="0" r="1" gradientTransform="rotate(113.233 7.897 15.159)scale(5.79574)" gradientUnits="userSpaceOnUse"><stop offset=".097" stop-color="#E1E0E4"/><stop offset="1" stop-color="#CECAD6"/></radialGradient><radialGradient id="b" cx="0" cy="0" r="1" gradientTransform="rotate(145.706 10.104 11.29)scale(1.89104)" gradientUnits="userSpaceOnUse"><stop stop-color="#F4F6FE"/><stop offset="1" stop-color="#F4F6FE" stop-opacity="0"/></radialGradient><radialGradient id="c" cx="0" cy="0" r="1" gradientTransform="rotate(93.917 4.352 18.322)scale(3.98501 4.05745)" gradientUnits="userSpaceOnUse"><stop offset=".594" stop-color="#D1CCD9" stop-opacity="0"/><stop offset="1" stop-color="#B9B6BF"/></radialGradient><radialGradient id="k" cx="0" cy="0" r="1" gradientTransform="matrix(2.625 4.375 -15.32416 9.19451 15.156 6.966)" gradientUnits="userSpaceOnUse"><stop offset=".115" stop-color="#ABABAC"/><stop offset="1" stop-color="#C2BDC7" stop-opacity="0"/></radialGradient><radialGradient id="n" cx="0" cy="0" r="1" gradientTransform="matrix(0 16.0625 -2.22649 0 22.063 11.653)" gradientUnits="userSpaceOnUse"><stop stop-color="#F8F6FB"/><stop offset="1" stop-color="#E7E6EE" stop-opacity="0"/></radialGradient></defs></svg>
